Sources/FrostedUI/Resources/Icons.xcassets/hashtag24.imageset/hashtag-24.svg

<svg width="24" height="24" viewBox="0 0 24 24" fill="none" xmlns="http://www.w3.org/2000/svg" data-fui-icon="true">
  <path
    d="M18.3281 2.80566C18.4355 2.40598 18.8463 2.16842 19.2461 2.27539C19.6461 2.38258 19.8834 2.79431 19.7764 3.19434L18.6895 7.25098H22.0039C22.418 7.2511 22.7538 7.58692 22.7539 8.00098C22.7539 8.41511 22.418 8.75085 22.0039 8.75098H18.2881L16.5254 15.3301H20.0811C20.495 15.3304 20.8311 15.666 20.8311 16.0801C20.8309 16.494 20.495 16.8298 20.0811 16.8301H16.123L15.0352 20.8906C14.9278 21.2905 14.5162 21.5281 14.1162 21.4209C13.7162 21.3136 13.4787 20.902 13.5859 20.502L14.5703 16.8301H6.88965L5.80176 20.8906C5.69442 21.2905 5.28281 21.5281 4.88281 21.4209C4.48302 21.3135 4.24538 20.9019 4.35254 20.502L5.33691 16.8301H2C1.58585 16.8301 1.25011 16.4942 1.25 16.0801C1.25 15.6659 1.58579 15.3301 2 15.3301H5.73828L7.50195 8.75098H3.92285C3.50881 8.75078 3.17285 8.41507 3.17285 8.00098C3.17294 7.58696 3.50886 7.25117 3.92285 7.25098H7.90332L9.09473 2.80566C9.20204 2.40602 9.61293 2.16865 10.0127 2.27539C10.4128 2.38259 10.6501 2.79427 10.543 3.19434L9.45605 7.25098H17.1367L18.3281 2.80566ZM7.29199 15.3301H14.9717L16.7354 8.75098H9.05469L7.29199 15.3301Z"
    fill="currentColor"
  />
</svg>

<svg xmlns="http://www.w3.org/2000/svg" width="24" height="24" fill="none" data-fui-icon="true" viewBox="0 0 24 24"><path fill="currentColor" d="M18.328 2.806a.75.75 0 0 1 1.448.388L18.69 7.251h3.315a.75.75 0 0 1 0 1.5h-3.716l-1.763 6.58h3.556a.75.75 0 0 1 0 1.5h-3.958l-1.088 4.06a.75.75 0 0 1-1.45-.389l.985-3.672H6.89l-1.088 4.06a.75.75 0 0 1-1.45-.388l.985-3.672H2a.75.75 0 0 1 0-1.5h3.738l1.764-6.579h-3.58a.75.75 0 0 1 0-1.5h3.981l1.192-4.445a.75.75 0 0 1 1.448.388L9.456 7.251h7.68zM7.292 15.33h7.68l1.763-6.579h-7.68z"/></svg>
